X:201
T:March in Bluebeard,3voices. JGi.201
M:2/4
L:1/8
Q:1/4=100
S:Joshua Gibbons MS,1823,Tealby,Lincs.
R:march
O:Tealby,Lincolnshire
Z:VMP/R.Greig, 2009
K:C
[V:1]|:g>f ed|c2d2|e>f gf/e/|dd/d/d2|
[V:2]|:e>d cB|c2B2|c>B cd/c/|BB/B/B2|
[V:3]|:G,,2G,2|C,2G,2|C2C,C|E,D,/D,/D,2|
[V:1]g>f ed|c2d2|e/d/e/f/ ed|cc/c/ c2z:|
[V:2]e>d cB|c2B2|c/B/c/d/ cG|EE/E/E2z:|
[V:3]C,2G,2|C,2G,2|G,2G,,2|C,C,/C,/C,2z:|
[V:1]|:d>c Bc|c2d2|e/d/e/f/ (a/g/).f/.e/|dd/d/d2:|
[V:2]|:B>A GA|c2B2|d/c/d/e/ f/e/d/c/|BB/B/B2:|
[V:3]|:G,,>G, G,G,|G,,2G,2|G,,2zG,|D,D,/D,/D,2:|
[V:1]|:g>f ed|c2d2|e/d/e/f/ ed|cc/c/c2:|
[V:2]|:B>A GA|c2B2|BA GF|EE/E/E2:|
[V:3]|:G,,2,z2|G,2C,2|D,2D,2|C,C,/C,/C,2:|

